icons/desktop/16/svg/block-download-16.svg

<svg width="16" height="16" viewBox="0 0 16 16" fill="none" xmlns="http://www.w3.org/2000/svg">
<g clip-path="url(#clip0_13802_57432)">
<path d="M8 0C12.3739 0 15.934 3.52981 15.9941 7.88965C15.5233 7.58273 15.0012 7.34924 14.4453 7.19824C14.0483 3.99224 11.312 1.5 8 1.5C6.478 1.5 5.07873 2.03016 3.96973 2.91016L9.40527 8.34277C9.02535 8.6717 8.6891 9.04981 8.41113 9.4707L2.91016 3.96973C2.03016 5.07873 1.5 6.478 1.5 8C1.5 11.543 4.34996 14.4281 7.87793 14.4941C8.08688 15.029 8.37265 15.524 8.72852 15.9629C8.48867 15.9849 8.24584 16 8 16C3.589 16 0 12.411 0 8C0 3.589 3.589 0 8 0Z" fill="black"/>
<path d="M15.25 14.5C15.6642 14.5 16 14.8358 16 15.25C16 15.6642 15.6642 16 15.25 16H10.75C10.3358 16 10 15.6642 10 15.25C10 14.8358 10.3358 14.5 10.75 14.5H15.25Z" fill="black"/>
<path d="M13 8C13.414 8 13.75 8.336 13.75 8.75V10.999H15.1084L15.1074 11C15.4571 11.0003 15.6317 11.423 15.3848 11.6699L13.2793 13.7764C13.1263 13.9293 12.8766 13.9294 12.7236 13.7764L10.6172 11.6689C10.3703 11.4221 10.5448 10.9994 10.8945 10.999H12.25V8.75C12.25 8.336 12.586 8 13 8Z" fill="black"/>
</g>
<defs>
<clipPath id="clip0_13802_57432">
<rect width="16" height="16" fill="white"/>
</clipPath>
</defs>
</svg>

<!-- This Source Code Form is subject to the terms of the Mozilla Public
   - License, v. 2.0. If a copy of the MPL was not distributed with this
   - file, You can obtain one at http://mozilla.org/MPL/2.0/. -->
<svg xmlns="http://www.w3.org/2000/svg" width="16" height="16" fill="context-fill" fill-opacity="context-fill-opacity" viewBox="0 0 16 16">
    <g clip-path="url(#clip0_13802_57432)">
        <path d="M8 0c4.374 0 7.934 3.53 7.994 7.89a5.5 5.5 0 0 0-1.549-.692C14.048 3.992 11.312 1.5 8 1.5c-1.522 0-2.921.53-4.03 1.41l5.435 5.433c-.38.329-.716.707-.994 1.128l-5.5-5.501A6.46 6.46 0 0 0 1.5 8c0 3.543 2.85 6.428 6.378 6.494.209.535.495 1.03.85 1.469q-.36.035-.728.037c-4.411 0-8-3.589-8-8s3.589-8 8-8M15.25 14.5a.75.75 0 0 1 0 1.5h-4.5a.75.75 0 0 1 0-1.5z" />
        <path d="M13 8a.75.75 0 0 1 .75.75v2.249h1.358V11c.35 0 .524.423.277.67l-2.106 2.106a.394.394 0 0 1-.555 0l-2.107-2.107a.392.392 0 0 1 .277-.67h1.356V8.75A.75.75 0 0 1 13 8" />
    </g>
</svg>
